X:641
T: ICH HABE MIR EINES ERWAEHLET
N: E0591
O: Europa, Mitteleuropa, Deutschland, Bergisches Land; Kleve
R: Liebes - Lied
M: 6/8
L: 1/16
K: F
C2 | F3EF2G2F2G2 | AGF2z6
FA | c3cc2d2c2B2 | A6z4
FA | c2c2dcB4cB | A2A2cAG4
FG | A3Bc2d2c2B2 | A6z4
FA | c2c2dcB4cB | A2A2cAG4
FG | A3Bc2d2c2B2 | A6z4

@@@ Tune index: 4291
